X: 31
T:Woods of Old Limerick (#141), The
M:6/8
L:1/8
S:John Kelly, San Francisco
K:F
c/2B/2|AFF GAB|cff edB|AFF GBB|GEC GAB|
AFF GAB|cff ecB|A2 F GcB|GFF F2:|
|:f/2g/2|aff fgf|ecc c2 g/2a/2|bge fga|bge f2 g|
agf gec|def ecB|A2 F GcB|GFF F2:||

